images/products-tubs-icon-4.svg

<svg width="20" height="21" viewBox="0 0 20 21" fill="none" xmlns="http://www.w3.org/2000/svg">
<path d="M17.7087 11.6058C18.0587 11.6058 18.3337 11.3225 18.3337 10.9808C18.3337 10.6308 18.0587 10.3558 17.7087 10.3558H16.667V8.52246H17.7087C18.0587 8.52246 18.3337 8.24746 18.3337 7.89746C18.3337 7.55579 18.0587 7.27246 17.7087 7.27246H16.4753C16.0753 5.94746 15.0337 4.90579 13.7087 4.50579V3.27246C13.7087 2.93079 13.4253 2.64746 13.0837 2.64746C12.742 2.64746 12.4587 2.93079 12.4587 3.27246V4.31413H10.6253V3.27246C10.6253 2.93079 10.342 2.64746 10.0003 2.64746C9.65866 2.64746 9.37533 2.93079 9.37533 3.27246V4.31413H7.55033V3.27246C7.55033 2.93079 7.26699 2.64746 6.92533 2.64746C6.57533 2.64746 6.30033 2.93079 6.30033 3.27246V4.50579C4.96699 4.90579 3.92533 5.94746 3.52533 7.27246H2.29199C1.95033 7.27246 1.66699 7.55579 1.66699 7.89746C1.66699 8.24746 1.95033 8.52246 2.29199 8.52246H3.33366V10.3558H2.29199C1.95033 10.3558 1.66699 10.6308 1.66699 10.9808C1.66699 11.3225 1.95033 11.6058 2.29199 11.6058H3.33366V13.4391H2.29199C1.95033 13.4391 1.66699 13.7141 1.66699 14.0641C1.66699 14.4058 1.95033 14.6891 2.29199 14.6891H3.52533C3.91699 16.0141 4.96699 17.0558 6.30033 17.4558V18.6891C6.30033 19.0308 6.57533 19.3141 6.92533 19.3141C7.26699 19.3141 7.55033 19.0308 7.55033 18.6891V17.6475H9.38366V18.6891C9.38366 19.0308 9.65866 19.3141 10.0087 19.3141C10.3503 19.3141 10.6337 19.0308 10.6337 18.6891V17.6475H12.4587V18.6891C12.4587 19.0308 12.742 19.3141 13.0837 19.3141C13.4253 19.3141 13.7087 19.0308 13.7087 18.6891V17.4558C15.0337 17.0558 16.0753 16.0141 16.4753 14.6891H17.7087C18.0587 14.6891 18.3337 14.4058 18.3337 14.0641C18.3337 13.7141 18.0587 13.4391 17.7087 13.4391H16.667V11.6058H17.7087ZM14.3837 12.8641C14.3837 14.2391 13.2587 15.3641 11.8837 15.3641H8.11699C6.74199 15.3641 5.61699 14.2391 5.61699 12.8641V9.09746C5.61699 7.72246 6.74199 6.59746 8.11699 6.59746H11.8837C13.2587 6.59746 14.3837 7.72246 14.3837 9.09746V12.8641Z" fill="black"/>
<path d="M8.34967 14.5223H11.658C12.6997 14.5223 13.5497 13.6806 13.5497 12.6306V9.3223C13.5497 8.28063 12.708 7.43066 11.658 7.43066H8.34967C7.30801 7.43066 6.45801 8.2723 6.45801 9.3223V12.6306C6.45801 13.6806 7.29967 14.5223 8.34967 14.5223Z" fill="black"/>
</svg>

<svg width="20" height="21" fill="none" xmlns="http://www.w3.org/2000/svg"><path d="M17.709 11.606c.35 0 .625-.284.625-.625a.619.619 0 00-.625-.625h-1.042V8.522h1.042c.35 0 .625-.275.625-.625a.624.624 0 00-.625-.625h-1.234a4.146 4.146 0 00-2.766-2.766V3.272a.63.63 0 00-.625-.625.63.63 0 00-.625.625v1.042h-1.834V3.272A.63.63 0 0010 2.647a.63.63 0 00-.625.625v1.042H7.55V3.272a.624.624 0 10-1.25 0v1.234a4.142 4.142 0 00-2.775 2.766H2.292a.624.624 0 100 1.25h1.042v1.834H2.292a.624.624 0 100 1.25h1.042v1.833H2.292a.624.624 0 100 1.25h1.233A4.125 4.125 0 006.3 17.456v1.233a.624.624 0 101.25 0v-1.041h1.834v1.041a.624.624 0 101.25 0v-1.041h1.825v1.041a.63.63 0 00.625.625.63.63 0 00.625-.625v-1.233a4.146 4.146 0 002.766-2.767h1.234c.35 0 .625-.283.625-.625a.619.619 0 00-.625-.625h-1.042v-1.833h1.042zm-3.325 1.258c0 1.375-1.125 2.5-2.5 2.5H8.117a2.507 2.507 0 01-2.5-2.5V9.097c0-1.375 1.125-2.5 2.5-2.5h3.767c1.375 0 2.5 1.125 2.5 2.5v3.767z" fill="#000"/><path d="M8.35 14.522h3.308a1.89 1.89 0 001.892-1.891V9.322a1.89 1.89 0 00-1.892-1.891H8.35a1.89 1.89 0 00-1.892 1.891v3.309c0 1.05.842 1.891 1.892 1.891z" fill="#000"/></svg>
